X:1
T:Old, Yet Ever New
T:Old, Yet Ever New
T:William Asbury Williams
T:William Asbury Williams, 1883
T:Public Domain Courtesy of the Cyber Hymnal™
C:William Asbury Williams
Z:Public Domain
Z:Courtesy of the Cyber Hymnal™
%%score ( 1 2 ) ( 3 4 )
L:1/8
Q:1/4=83
M:2/4
K:Eb
V:1 treble 
V:2 treble 
V:3 bass 
V:4 bass 
V:1
 E | E[DF] [EG][FA] | [GB][GB] [GB][EG] | [DF]>[EG] [FA][Dc] | (B2 G)E | E[DF] [EG][FA] | %6
w: 1.~There|is a sto- ry|sweet to hear, I|love to tell it,|too: * It|fills my heart with|
w: 2.~They|tell me God the|Son came down From|His bright throne to|die, * That|I might wear a|
w: 3.~They|say He bore the|cross for me, And|suf- fered in my|place, * That|I might al- ways|
w: 4.~O|won- drous love! so|great, so vast, So|bound- less and so|free! * Low|at Thy feet my|
 [GB][GB] [GB][EG] | [CF]>[FA] [EG][DF] | E3 ||"^Refrain" [GB] | [Ge]3 [GB] | [Bd][Ac] A[Ac] | %12
w: hope and cheer, ’Tis|old, yet ev- er|new.||||
w: star- ry crown, And|dwell with Him on|high.|’Tis|old yet|ev- er new; ’Tis|
w: hap- py be, And|ran- somed by His|grace.||||
w: all I cast; I|co- vet on- ly|Thee.||||
 [GB]3 [EG] | [EG][DF] [DF][FB] | [Ge]3 [GB] | [Bd][Ac] A[Ac] | [GB]>[FA] [EG][DF] | E3 |] %18
w: ||||||
w: old yet|ev- er new; I|know, I|feel it’s true: ’Tis|old but ev- er|new.|
w: ||||||
w: ||||||
V:2
 E | E x3 | x4 | x4 | E3 E | E x3 | x4 | x4 | E3 || x | x4 | x2 A x | x4 | x4 | x4 | x2 A x | x4 | %17
 E3 |] %18
V:3
 [E,G,] | [E,G,][E,A,] [E,B,][E,B,] | [E,E][E,E] [E,E][E,B,] | [B,,B,]>[B,,B,] [B,,B,][B,,A,] | %4
w: ~|~ ~ ~ ~|~ ~ ~ ~|~ ~ ~ ~|
 [E,G,]3 [E,G,] | [E,G,][E,A,] [E,B,][E,B,] | [E,E][E,E] [E,E][E,B,] | %7
w: ~ ~|~ ~ ~ ~|~ ~ ~ ~|
 [A,,A,]>[A,,C] [B,,B,][B,,A,] | [E,G,]3 || [E,E] | [E,B,][E,B,] [E,B,][E,E] | %11
w: ~ ~ ~ ~|~|~|~ ’Tis old, ~|
 [A,E][A,E] [A,C][A,E] | [E,E][E,E] [E,E][E,B,] | [B,,B,][B,,B,] [B,,B,][D,B,] | %14
w: ~ ~ ~ ~|~ ’Tis old, ~|~ ~ ~ ~|
 [E,B,][E,B,] [E,B,][E,E] | [A,E][A,E] [A,C][A,E] | [B,E]>B, [B,,B,][B,,A,] | [E,G,]3 |] %18
w: ~ I know, *||||
V:4
 x | x4 | x4 | x4 | x4 | x4 | x4 | x4 | x3 || x | x4 | x4 | x4 | x4 | x4 | x4 | x3/2 B,/ x2 | x3 |] %18

